; generated by Slic3r 1.37.1-prusa3d-win64 on 2018-01-08 at 21:22:43

; 

; external perimeters extrusion width = 0.60mm
; perimeters extrusion width = 0.43mm
; infill extrusion width = 0.70mm
; solid infill extrusion width = 0.70mm
; top infill extrusion width = 0.43mm
; support material extrusion width = 0.35mm
; first layer extrusion width = 0.42mm

M107
M115 U3.0.12 ; tell printer latest fw version
M83  ; extruder relative mode
M104 S215 ; set extruder temp
M140 S55 ; set bed temp
M190 S55 ; wait for bed temp
M109 S215 ; wait for extruder temp
G28 W ; home all without mesh bed level
G80 ; mesh bed leveling
G1 Y-3.0 F1000.0 ; go outside pritn area
G1 X60.0 E9.0  F1000.0 ; intro line
G1 X100.0 E12.5  F1000.0 ; intro line
; Filament gcode

G21 ; set units to millimeters
G90 ; use absolute coordinates
M83 ; use relative distances for extrusion
G1 E-0.80000 F2100.00000
G1 Z0.200 F7200.000
G1 X104.646 Y86.682 F7200.000
G1 E0.80000 F2100.00000
M204 S1000
G1 F2100
G1 X106.587 Y84.736 E0.08617
G1 X109.007 Y82.776 E0.09765
G1 X111.316 Y81.281 E0.08625
G1 X113.973 Y79.939 E0.09332
G1 X116.543 Y78.956 E0.08629
G1 X119.312 Y78.214 E0.08987
G1 X122.139 Y77.767 E0.08975
G1 X125.005 Y77.617 E0.08999
G1 X127.864 Y77.767 E0.08975
G1 X130.694 Y78.216 E0.08987
G1 X133.463 Y78.958 E0.08987
G1 X136.132 Y79.982 E0.08963
G1 X138.693 Y81.286 E0.09011
G1 X141.090 Y82.843 E0.08963
G1 X143.321 Y84.649 E0.08999
G1 X145.264 Y86.587 E0.08605
G1 X147.224 Y89.007 E0.09765
G1 X148.719 Y91.316 E0.08624
G1 X150.061 Y93.973 E0.09332
G1 X151.044 Y96.543 E0.08629
G1 X151.786 Y99.312 E0.08987
G1 X152.233 Y102.139 E0.08975
G1 X152.383 Y105.001 E0.08987
G1 X152.233 Y107.864 E0.08987
G1 X151.784 Y110.694 E0.08987
G1 X151.043 Y113.459 E0.08975
G1 X150.018 Y116.132 E0.08975
G1 X148.714 Y118.693 E0.09011
G1 X147.157 Y121.090 E0.08963
G1 X145.354 Y123.318 E0.08987
G1 X143.413 Y125.264 E0.08617
G1 X140.993 Y127.224 E0.09765
G1 X138.684 Y128.719 E0.08624
G1 X136.027 Y130.061 E0.09332
G1 X133.457 Y131.044 E0.08629
G1 X130.688 Y131.786 E0.08987
G1 X127.861 Y132.233 E0.08975
G1 X124.999 Y132.383 E0.08987
G1 X122.136 Y132.233 E0.08987
G1 X119.306 Y131.784 E0.08987
G1 X116.541 Y131.043 E0.08975
G1 X113.868 Y130.018 E0.08975
G1 X111.307 Y128.714 E0.09011
G1 X108.910 Y127.157 E0.08963
G1 X106.682 Y125.354 E0.08987
G1 X104.736 Y123.413 E0.08617
G1 X102.776 Y120.993 E0.09765
G1 X101.281 Y118.684 E0.08624
G1 X99.939 Y116.027 E0.09332
G1 X98.956 Y113.457 E0.08629
G1 X98.214 Y110.688 E0.08987
G1 X97.767 Y107.861 E0.08975
G1 X97.617 Y104.999 E0.08987
G1 X97.767 Y102.136 E0.08987
G1 X98.216 Y99.306 E0.08987
G1 X98.958 Y96.537 E0.08987
G1 X99.982 Y93.868 E0.08963
G1 X101.284 Y91.311 E0.08999
G1 X102.843 Y88.910 E0.08975
G1 X104.609 Y86.729 E0.08799
G1 F5760
G1 X106.155 Y85.172 E-0.76000
G1 E-0.04000 F2100.00000
G1 X106.641 Y89.406 F7200.000
G1 E0.80000 F2100.00000
G1 F1680
G1 X108.435 Y87.512 E0.08178
G1 X110.423 Y85.824 E0.08178
G1 X112.581 Y84.360 E0.08178
G1 X114.886 Y83.138 E0.08178
G1 X117.309 Y82.173 E0.08178
G1 X119.822 Y81.475 E0.08178
G1 X122.396 Y81.053 E0.08178
G1 X124.990 Y80.913 E0.08145
G1 X127.604 Y81.053 E0.08210
G1 X130.178 Y81.475 E0.08178
G1 X132.691 Y82.173 E0.08178
G1 X135.114 Y83.138 E0.08178
G1 X137.419 Y84.360 E0.08178
G1 X139.577 Y85.824 E0.08178
G1 X141.565 Y87.512 E0.08178
G1 X143.359 Y89.406 E0.08178
G1 X144.937 Y91.482 E0.08178
G1 X146.282 Y93.717 E0.08178
G1 X147.373 Y96.075 E0.08145
G1 X148.210 Y98.556 E0.08210
G1 X148.771 Y101.103 E0.08178
G1 X149.053 Y103.696 E0.08178
G1 X149.053 Y106.304 E0.08178
G1 X148.771 Y108.897 E0.08178
G1 X148.210 Y111.444 E0.08178
G1 X147.377 Y113.916 E0.08178
G1 X146.282 Y116.283 E0.08178
G1 X144.937 Y118.518 E0.08178
G1 X143.359 Y120.594 E0.08178
G1 X141.572 Y122.480 E0.08145
G1 X139.578 Y124.176 E0.08210
G1 X137.419 Y125.640 E0.08178
G1 X135.114 Y126.862 E0.08178
G1 X132.691 Y127.827 E0.08178
G1 X130.178 Y128.525 E0.08178
G1 X127.604 Y128.947 E0.08178
G1 X125.000 Y129.088 E0.08178
G1 X122.396 Y128.947 E0.08178
G1 X119.822 Y128.525 E0.08178
G1 X117.309 Y127.827 E0.08178
G1 X114.895 Y126.865 E0.08145
G1 X112.581 Y125.640 E0.08210
G1 X110.423 Y124.176 E0.08178
G1 X108.435 Y122.488 E0.08178
G1 X106.641 Y120.594 E0.08178
G1 X105.063 Y118.518 E0.08178
G1 X103.718 Y116.283 E0.08178
G1 X102.623 Y113.916 E0.08178
G1 X101.790 Y111.444 E0.08178
G1 X101.229 Y108.897 E0.08178
G1 X100.947 Y106.304 E0.08178
G1 X100.947 Y103.696 E0.08178
G1 X101.229 Y101.103 E0.08178
G1 X101.790 Y98.556 E0.08178
G1 X102.623 Y96.084 E0.08178
G1 X103.718 Y93.717 E0.08178
G1 X105.063 Y91.482 E0.08178
G1 X106.605 Y89.454 E0.07990
G1 X106.905 Y89.682 F7200.000
G1 F1260
G1 X108.694 Y87.786 E0.08173
G1 X110.651 Y86.124 E0.08050
G1 X112.776 Y84.684 E0.08050
G1 X115.044 Y83.481 E0.08050
G1 X117.429 Y82.531 E0.08050
G1 X119.903 Y81.844 E0.08050
G1 X122.436 Y81.429 E0.08050
G1 X124.990 Y81.290 E0.08018
G1 X127.563 Y81.429 E0.08081
G1 X130.097 Y81.844 E0.08050
G1 X132.571 Y82.531 E0.08050
G1 X134.956 Y83.481 E0.08050
G1 X137.224 Y84.684 E0.08050
G1 X139.349 Y86.124 E0.08050
G1 X141.306 Y87.786 E0.08050
G1 X143.071 Y89.650 E0.08050
G1 X144.625 Y91.694 E0.08050
G1 X145.948 Y93.894 E0.08050
G1 X147.022 Y96.215 E0.08018
G1 X147.846 Y98.657 E0.08081
G1 X148.398 Y101.164 E0.08050
G1 X148.676 Y103.716 E0.08050
G1 X148.676 Y106.284 E0.08050
G1 X148.398 Y108.836 E0.08050
G1 X147.846 Y111.343 E0.08050
G1 X147.026 Y113.776 E0.08050
G1 X145.948 Y116.106 E0.08050
G1 X144.625 Y118.306 E0.08050
G1 X143.071 Y120.350 E0.08050
G1 X141.313 Y122.206 E0.08018
G1 X139.349 Y123.876 E0.08081
G1 X137.224 Y125.316 E0.08050
G1 X134.956 Y126.519 E0.08050
G1 X132.571 Y127.469 E0.08050
G1 X130.097 Y128.156 E0.08050
G1 X127.564 Y128.571 E0.08050
G1 X125.000 Y128.710 E0.08050
G1 X122.436 Y128.571 E0.08050
G1 X119.903 Y128.156 E0.08050
G1 X117.429 Y127.469 E0.08050
G1 X115.054 Y126.523 E0.08018
G1 X112.776 Y125.316 E0.08081
G1 X110.651 Y123.876 E0.08050
G1 X108.694 Y122.214 E0.08050
G1 X106.929 Y120.350 E0.08050
G1 X105.375 Y118.306 E0.08050
G1 X104.052 Y116.106 E0.08050
G1 X102.974 Y113.776 E0.08050
G1 X102.154 Y111.343 E0.08050
G1 X101.602 Y108.836 E0.08050
G1 X101.324 Y106.284 E0.08050
G1 X101.324 Y103.716 E0.08050
G1 X101.602 Y101.164 E0.08050
G1 X102.154 Y98.657 E0.08050
G1 X102.974 Y96.224 E0.08050
G1 X104.052 Y93.894 E0.08050
G1 X105.375 Y91.694 E0.08050
G1 X106.869 Y89.730 E0.07737
G1 X106.770 Y89.305 F7200.000
G1 F5760
G1 X108.371 Y88.130 E-0.76000
G1 E-0.04000 F2100.00000
G1 X106.858 Y88.665 F7200.000
G1 E0.80000 F2100.00000
G1 F1680
G1 X108.665 Y86.858 E0.08012
G1 X110.650 Y85.250 E0.08012
G1 X112.794 Y83.858 E0.08012
G1 X115.070 Y82.698 E0.08012
G1 X117.456 Y81.782 E0.08012
G1 X119.924 Y81.121 E0.08012
G1 X122.448 Y80.721 E0.08012
G1 X125.000 Y80.587 E0.08012
G1 X127.541 Y80.720 E0.07979
G1 X130.076 Y81.121 E0.08045
G1 X132.544 Y81.782 E0.08012
G1 X134.930 Y82.698 E0.08012
G1 X137.206 Y83.858 E0.08012
G1 X139.350 Y85.250 E0.08012
G1 X141.335 Y86.858 E0.08012
G1 X143.142 Y88.665 E0.08012
G1 X144.750 Y90.650 E0.08012
G1 X146.142 Y92.794 E0.08012
G1 X147.302 Y95.070 E0.08012
G1 X148.218 Y97.456 E0.08012
G1 X148.879 Y99.924 E0.08012
G1 X149.279 Y102.448 E0.08012
G1 X149.413 Y105.000 E0.08012
G1 X149.279 Y107.552 E0.08012
G1 X148.879 Y110.076 E0.08012
G1 X148.218 Y112.544 E0.08012
G1 X147.302 Y114.930 E0.08012
G1 X146.147 Y117.197 E0.07979
G1 X144.750 Y119.350 E0.08045
G1 X143.142 Y121.335 E0.08012
G1 X141.335 Y123.142 E0.08012
G1 X139.350 Y124.750 E0.08012
G1 X137.206 Y126.142 E0.08012
G1 X134.930 Y127.302 E0.08012
G1 X132.544 Y128.218 E0.08012
G1 X130.076 Y128.879 E0.08012
G1 X127.552 Y129.279 E0.08012
G1 X125.000 Y129.413 E0.08012
G1 X122.448 Y129.279 E0.08012
G1 X119.924 Y128.879 E0.08012
G1 X117.456 Y128.218 E0.08012
G1 X115.070 Y127.302 E0.08012
G1 X112.803 Y126.147 E0.07979
G1 X110.650 Y124.750 E0.08045
G1 X108.665 Y123.142 E0.08012
G1 X106.858 Y121.335 E0.08012
G1 X105.250 Y119.350 E0.08012
G1 X103.858 Y117.206 E0.08012
G1 X102.698 Y114.930 E0.08012
G1 X101.782 Y112.544 E0.08012
G1 X101.121 Y110.076 E0.08012
G1 X100.721 Y107.552 E0.08012
G1 X100.587 Y105.000 E0.08012
G1 X100.721 Y102.448 E0.08012
G1 X101.121 Y99.924 E0.08012
G1 X101.782 Y97.456 E0.08012
G1 X102.698 Y95.070 E0.08012
G1 X103.858 Y92.794 E0.08012
G1 X105.250 Y90.650 E0.08012
G1 X106.820 Y88.711 E0.07824
G1 X106.527 Y88.474 F7200.000
G1 F1260
G1 X108.412 Y86.577 E0.08385
G1 X110.429 Y84.944 E0.08136
G1 X112.605 Y83.531 E0.08136
G1 X114.917 Y82.353 E0.08136
G1 X117.339 Y81.423 E0.08136
G1 X119.846 Y80.751 E0.08136
G1 X122.409 Y80.345 E0.08136
G1 X125.000 Y80.209 E0.08136
G1 X127.581 Y80.345 E0.08103
G1 X130.154 Y80.751 E0.08169
G1 X132.661 Y81.423 E0.08136
G1 X135.083 Y82.353 E0.08136
G1 X137.395 Y83.531 E0.08136
G1 X139.571 Y84.944 E0.08136
G1 X141.588 Y86.577 E0.08136
G1 X143.423 Y88.412 E0.08136
G1 X145.056 Y90.429 E0.08136
G1 X146.469 Y92.605 E0.08136
G1 X147.647 Y94.917 E0.08136
G1 X148.577 Y97.339 E0.08136
G1 X149.249 Y99.846 E0.08136
G1 X149.655 Y102.409 E0.08136
G1 X149.791 Y105.000 E0.08136
G1 X149.655 Y107.591 E0.08136
G1 X149.249 Y110.154 E0.08136
G1 X148.577 Y112.661 E0.08136
G1 X147.647 Y115.083 E0.08136
G1 X146.474 Y117.386 E0.08103
G1 X145.056 Y119.572 E0.08169
G1 X143.423 Y121.588 E0.08136
G1 X141.588 Y123.423 E0.08136
G1 X139.571 Y125.056 E0.08136
G1 X137.395 Y126.469 E0.08136
G1 X135.083 Y127.647 E0.08136
G1 X132.661 Y128.577 E0.08136
G1 X130.154 Y129.249 E0.08136
G1 X127.591 Y129.655 E0.08136
G1 X125.000 Y129.791 E0.08136
G1 X122.409 Y129.655 E0.08136
G1 X119.846 Y129.249 E0.08136
G1 X117.339 Y128.577 E0.08136
G1 X114.917 Y127.647 E0.08136
G1 X112.614 Y126.474 E0.08103
G1 X110.428 Y125.056 E0.08169
G1 X108.412 Y123.423 E0.08136
G1 X106.577 Y121.588 E0.08136
G1 X104.944 Y119.571 E0.08136
G1 X103.531 Y117.395 E0.08136
G1 X102.353 Y115.083 E0.08136
G1 X101.423 Y112.661 E0.08136
G1 X100.751 Y110.154 E0.08136
G1 X100.345 Y107.591 E0.08136
G1 X100.209 Y105.000 E0.08136
G1 X100.345 Y102.409 E0.08136
G1 X100.751 Y99.846 E0.08136
G1 X101.423 Y97.339 E0.08136
G1 X102.353 Y94.917 E0.08136
G1 X103.531 Y92.605 E0.08136
G1 X104.944 Y90.429 E0.08136
G1 X106.489 Y88.521 E0.07698
G1 X106.918 Y88.556 F7200.000
M106 S252.45
G1 F5760
G1 X108.032 Y86.961 E-0.76000
G1 E-0.04000 F2100.00000
G1 Z0.550 F7200.000
M104 S210 ; set temperature
G1 X104.646 Y86.682 F7200.000
G1 E0.80000 F2100.00000
G1 F3000
G1 X106.587 Y84.736 E0.13792
G1 X109.007 Y82.776 E0.15630
G1 X111.316 Y81.281 E0.13804
G1 X113.973 Y79.939 E0.14937
G1 X116.543 Y78.956 E0.13811
G1 X119.312 Y78.214 E0.14384
G1 X122.139 Y77.767 E0.14365
G1 X125.005 Y77.617 E0.14403
G1 X127.864 Y77.767 E0.14365
G1 X130.694 Y78.216 E0.14384
G1 X133.463 Y78.958 E0.14384
G1 X136.132 Y79.982 E0.14346
G1 X138.693 Y81.286 E0.14423
G1 X141.090 Y82.843 E0.14346
G1 X143.321 Y84.649 E0.14403
G1 X145.264 Y86.587 E0.13773
G1 X147.224 Y89.007 E0.15630
G1 X148.719 Y91.316 E0.13804
G1 X150.061 Y93.973 E0.14937
G1 X151.044 Y96.543 E0.13811
G1 X151.786 Y99.312 E0.14385
G1 X152.233 Y102.139 E0.14365
G1 X152.383 Y105.001 E0.14384
G1 X152.233 Y107.864 E0.14384
G1 X151.784 Y110.694 E0.14385
G1 X151.043 Y113.459 E0.14365
G1 X150.018 Y116.132 E0.14365
G1 X148.714 Y118.693 E0.14423
G1 X147.157 Y121.090 E0.14347
G1 X145.354 Y123.318 E0.14384
G1 X143.413 Y125.264 E0.13792
G1 X140.993 Y127.224 E0.15630
G1 X138.684 Y128.719 E0.13804
G1 X136.027 Y130.061 E0.14937
G1 X133.457 Y131.044 E0.13811
G1 X130.688 Y131.786 E0.14385
G1 X127.861 Y132.233 E0.14365
G1 X124.999 Y132.383 E0.14384
G1 X122.136 Y132.233 E0.14384
G1 X119.306 Y131.784 E0.14385
G1 X116.541 Y131.043 E0.14365
G1 X113.868 Y130.018 E0.14365
G1 X111.307 Y128.714 E0.14423
G1 X108.910 Y127.157 E0.14347
G1 X106.682 Y125.354 E0.14384
G1 X104.736 Y123.413 E0.13792
G1 X102.776 Y120.993 E0.15629
G1 X101.281 Y118.684 E0.13804
G1 X99.939 Y116.027 E0.14937
G1 X98.956 Y113.457 E0.13811
G1 X98.214 Y110.688 E0.14384
G1 X97.767 Y107.861 E0.14365
G1 X97.617 Y104.999 E0.14384
G1 X97.767 Y102.136 E0.14384
G1 X98.216 Y99.306 E0.14384
G1 X98.958 Y96.537 E0.14384
G1 X99.982 Y93.868 E0.14346
G1 X101.284 Y91.311 E0.14403
G1 X102.843 Y88.910 E0.14365
G1 X104.609 Y86.729 E0.14083
G1 F5760
G1 X106.155 Y85.172 E-0.76000
G1 E-0.04000 F2100.00000
G1 X106.860 Y89.592 F7200.000
G1 E0.80000 F2100.00000
M204 S800
G1 F1800
G1 X108.632 Y87.721 E0.19683
G1 X110.597 Y86.053 E0.19683
G1 X112.730 Y84.606 E0.19683
G1 X115.006 Y83.399 E0.19683
G1 X117.400 Y82.445 E0.19683
G1 X119.884 Y81.756 E0.19683
G1 X122.427 Y81.339 E0.19683
G1 X124.962 Y81.202 E0.19390
G1 X127.573 Y81.339 E0.19973
G1 X130.116 Y81.756 E0.19685
G1 X132.600 Y82.445 E0.19683
G1 X134.994 Y83.399 E0.19683
G1 X137.270 Y84.606 E0.19683
G1 X139.403 Y86.053 E0.19683
G1 X141.368 Y87.721 E0.19683
G1 X143.140 Y89.592 E0.19683
G1 X144.699 Y91.644 E0.19683
G1 X146.028 Y93.852 E0.19683
G1 X147.110 Y96.191 E0.19683
G1 X147.933 Y98.633 E0.19683
G1 X148.487 Y101.150 E0.19683
G1 X148.766 Y103.711 E0.19683
G1 X148.766 Y106.289 E0.19683
G1 X148.487 Y108.850 E0.19683
G1 X147.933 Y111.367 E0.19683
G1 X147.110 Y113.809 E0.19683
G1 X146.028 Y116.148 E0.19683
G1 X144.699 Y118.356 E0.19683
G1 X143.140 Y120.408 E0.19683
G1 X141.394 Y122.251 E0.19390
G1 X139.404 Y123.947 E0.19973
G1 X137.270 Y125.394 E0.19685
G1 X134.994 Y126.601 E0.19683
G1 X132.600 Y127.555 E0.19683
G1 X130.116 Y128.244 E0.19683
G1 X127.573 Y128.661 E0.19683
G1 X125.000 Y128.800 E0.19683
G1 X122.427 Y128.661 E0.19683
G1 X119.884 Y128.244 E0.19683
G1 X117.400 Y127.555 E0.19683
G1 X115.042 Y126.615 E0.19390
G1 X112.730 Y125.394 E0.19973
G1 X110.597 Y123.947 E0.19685
G1 X108.632 Y122.279 E0.19683
G1 X106.860 Y120.408 E0.19683
G1 X105.301 Y118.356 E0.19683
G1 X103.972 Y116.148 E0.19683
G1 X102.890 Y113.809 E0.19683
G1 X102.067 Y111.367 E0.19683
G1 X101.513 Y108.850 E0.19683
G1 X101.234 Y106.289 E0.19683
G1 X101.234 Y103.711 E0.19683
G1 X101.513 Y101.150 E0.19683
G1 X102.067 Y98.633 E0.19683
G1 X102.890 Y96.191 E0.19683
G1 X103.972 Y93.852 E0.19683
G1 X105.301 Y91.644 E0.19683
G1 X106.824 Y89.640 E0.19225
M204 S1000
G1 X106.726 Y89.215 F7200.000
G1 F5760
G1 X108.329 Y88.043 E-0.76000
G1 E-0.04000 F2100.00000
G1 X110.337 Y85.697 F7200.000
G1 E0.80000 F2100.00000
M204 S800
G1 F2400
G1 X110.739 Y85.372 E0.02672
G1 X112.869 Y83.988 E0.13115
G1 X115.132 Y82.835 E0.13115
G1 X117.503 Y81.925 E0.13115
G1 X119.956 Y81.268 E0.13115
G1 X122.464 Y80.871 E0.13115
G1 X125.000 Y80.738 E0.13115
G1 X127.497 Y80.869 E0.12913
G1 X130.045 Y81.268 E0.13318
G1 X132.497 Y81.925 E0.13112
G1 X134.868 Y82.835 E0.13115
G1 X137.131 Y83.988 E0.13115
G1 X139.261 Y85.372 E0.13115
G1 X139.663 Y85.697 E0.02672
G1 X137.498 Y84.229 E0.13511
G1 X135.179 Y82.999 E0.13555
G1 X132.740 Y82.028 E0.13555
G1 X130.211 Y81.326 E0.13555
G1 X127.620 Y80.901 E0.13558
G1 X124.961 Y80.761 E0.13751
G1 X122.379 Y80.901 E0.13354
G1 X119.789 Y81.326 E0.13555
G1 X117.260 Y82.028 E0.13555
G1 X114.821 Y82.999 E0.13555
G1 X112.502 Y84.229 E0.13555
G1 X110.387 Y85.664 E0.13201
M204 S1000
G1 F5760
G1 X110.739 Y85.372 E-0.15852
G1 F5760
G1 X112.196 Y84.426 E-0.60148
G1 E-0.04000 F2100.00000
G1 X139.693 Y85.722 F7200.000
G1 E0.80000 F2100.00000
M204 S800
G1 F1200
G1 X141.235 Y86.970 E0.10242
G1 X141.640 Y87.375 E0.02962
G1 X139.739 Y85.760 E0.12882
M204 S1000
G1 F5760
G1 X141.235 Y86.970 E-0.66617
G1 F5760
G1 X141.426 Y87.161 E-0.09383
G1 E-0.04000 F2100.00000
G1 X141.753 Y87.488 F7200.000
G1 E0.80000 F2100.00000
M204 S800
G1 F1200
G1 X143.030 Y88.765 E0.09329
G1 X143.427 Y89.256 E0.03257
G1 X141.794 Y87.532 E0.12264
M204 S1000
G1 F5760
G1 X143.030 Y88.765 E-0.60494
G1 F5760
G1 X143.312 Y89.113 E-0.15506
G1 E-0.04000 F2100.00000
G1 X143.583 Y89.448 F7200.000
G1 E0.80000 F2100.00000
M204 S800
G1 F1200
G1 X144.628 Y90.739 E0.08578
G1 X145.004 Y91.317 E0.03559
G1 X143.619 Y89.496 E0.11814
M204 S1000
G1 F5760
G1 X144.628 Y90.739 E-0.55456
G1 F5760
G1 X144.952 Y91.237 E-0.20544
G1 E-0.04000 F2100.00000
G1 X145.174 Y91.580 F7200.000
G1 E0.80000 F2100.00000
M204 S800
G1 F1200
G1 X146.012 Y92.869 E0.07937
G1 X146.352 Y93.537 E0.03869
G1 X145.205 Y91.631 E0.11483
M204 S1000
G1 F5760
G1 X146.012 Y92.869 E-0.51159
G1 F5760
