; generated by Slic3r 1.37.1-prusa3d-win64 on 2018-02-15 at 16:29:35

; 

; external perimeters extrusion width = 0.45mm
; perimeters extrusion width = 0.45mm
; infill extrusion width = 0.45mm
; solid infill extrusion width = 0.45mm
; top infill extrusion width = 0.45mm
; first layer extrusion width = 0.42mm

M107
M115 U3.0.12 ; tell printer latest fw version
M83  ; extruder relative mode
M104 S215 ; set extruder temp
M140 S55 ; set bed temp
M190 S55 ; wait for bed temp
M109 S215 ; wait for extruder temp
G28 W ; home all without mesh bed level
G80 ; mesh bed leveling
G1 Y-3.0 F1000.0 ; go outside pritn area
G1 X60.0 E9.0  F1000.0 ; intro line
G1 X100.0 E12.5  F1000.0 ; intro line
; Filament gcode

G21 ; set units to millimeters
G90 ; use absolute coordinates
M83 ; use relative distances for extrusion
G1 E-0.80000 F2100.00000
G1 Z0.200 F7200.000
G1 X100.063 Y99.519 F7200.000
G1 E0.80000 F2100.00000
M204 S1000
G1 F2100
G1 X100.973 Y98.822 E0.03593
G1 X113.577 Y90.229 E0.47829
G1 X114.559 Y89.838 E0.03317
G1 X115.236 Y89.686 E0.02175
G1 X115.984 Y89.624 E0.02354
G1 X133.949 Y89.623 E0.56327
G1 X134.768 Y89.686 E0.02575
G1 X135.555 Y89.870 E0.02533
G1 X136.325 Y90.179 E0.02604
G1 X136.931 Y90.532 E0.02198
G1 X149.054 Y98.842 E0.46082
G1 X149.949 Y99.530 E0.03542
G1 X150.831 Y100.482 E0.04070
G1 X151.513 Y101.537 E0.03939
G1 X152.049 Y102.842 E0.04425
G1 X152.294 Y103.899 E0.03402
G1 X152.371 Y104.966 E0.03354
G1 X152.263 Y106.266 E0.04091
G1 X151.892 Y107.632 E0.04437
G1 X151.304 Y108.831 E0.04189
G1 X150.590 Y109.814 E0.03808
G1 X142.891 Y118.708 E0.36884
G1 X142.194 Y119.325 E0.02917
G1 X141.492 Y119.764 E0.02598
G1 X140.501 Y120.160 E0.03346
G1 X139.815 Y120.315 E0.02204
G1 X139.031 Y120.377 E0.02467
G1 X110.981 Y120.377 E0.87947
G1 X110.181 Y120.314 E0.02514
G1 X109.477 Y120.154 E0.02264
G1 X108.412 Y119.710 E0.03619
G1 X107.803 Y119.323 E0.02264
G1 X107.155 Y118.759 E0.02693
G1 X99.407 Y109.811 E0.37112
G1 X98.623 Y108.705 E0.04249
G1 X98.113 Y107.645 E0.03688
G1 X97.766 Y106.446 E0.03915
G1 X97.626 Y105.197 E0.03939
G1 X97.685 Y104.083 E0.03497
G1 X98.064 Y102.502 E0.05100
G1 X98.520 Y101.475 E0.03521
G1 X99.223 Y100.412 E0.03998
G1 X100.022 Y99.562 E0.03655
G1 F5760
G1 X100.973 Y98.822 E-0.41741
G1 F5760
G1 X101.790 Y98.265 E-0.34259
G1 E-0.04000 F2100.00000
G1 X110.786 Y100.541 F7200.000
G1 E0.80000 F2100.00000
G1 F1680
G1 X115.235 Y95.385 E0.21354
G1 X115.447 Y95.179 E0.00928
G1 X115.726 Y94.988 E0.01058
G1 X116.033 Y94.847 E0.01058
G1 X116.359 Y94.761 E0.01058
G1 X116.654 Y94.736 E0.00928
G1 X133.346 Y94.736 E0.52337
G1 X133.641 Y94.761 E0.00928
G1 X133.967 Y94.847 E0.01058
G1 X134.274 Y94.988 E0.01058
G1 X134.553 Y95.179 E0.01058
G1 X134.765 Y95.385 E0.00928
G1 X139.214 Y100.541 E0.21354
G1 X139.214 Y113.142 E0.39508
G1 X139.188 Y113.442 E0.00943
G1 X139.099 Y113.773 E0.01076
G1 X138.954 Y114.084 E0.01076
G1 X138.757 Y114.365 E0.01075
G1 X138.515 Y114.607 E0.01076
G1 X138.254 Y114.790 E0.00997
G1 X137.930 Y114.947 E0.01129
G1 X137.592 Y115.038 E0.01100
G1 X137.292 Y115.064 E0.00943
G1 X112.708 Y115.064 E0.77082
G1 X112.408 Y115.038 E0.00943
G1 X112.077 Y114.949 E0.01075
G1 X111.766 Y114.804 E0.01075
G1 X111.485 Y114.607 E0.01076
G1 X111.243 Y114.365 E0.01076
G1 X111.046 Y114.084 E0.01075
G1 X110.901 Y113.773 E0.01076
G1 X110.812 Y113.442 E0.01076
G1 X110.786 Y113.142 E0.00943
G1 X110.786 Y100.601 E0.39320
G1 X111.163 Y100.682 F7200.000
G1 F1680
G1 X115.510 Y95.644 E0.20864
G1 X115.687 Y95.471 E0.00775
G1 X115.912 Y95.317 E0.00855
G1 X116.160 Y95.204 E0.00855
G1 X116.424 Y95.134 E0.00855
G1 X116.670 Y95.113 E0.00775
G1 X133.330 Y95.113 E0.52235
G1 X133.576 Y95.134 E0.00775
G1 X133.840 Y95.204 E0.00855
G1 X134.088 Y95.317 E0.00855
G1 X134.313 Y95.471 E0.00855
G1 X134.490 Y95.644 E0.00775
G1 X138.837 Y100.682 E0.20864
G1 X138.837 Y113.126 E0.39017
G1 X138.815 Y113.376 E0.00788
G1 X138.743 Y113.644 E0.00869
G1 X138.626 Y113.895 E0.00869
G1 X138.467 Y114.122 E0.00869
G1 X138.272 Y114.317 E0.00869
G1 X138.063 Y114.464 E0.00799
G1 X137.798 Y114.592 E0.00923
G1 X137.526 Y114.665 E0.00883
G1 X137.276 Y114.687 E0.00788
G1 X112.724 Y114.687 E0.76979
G1 X112.474 Y114.665 E0.00788
G1 X112.206 Y114.593 E0.00869
G1 X111.955 Y114.476 E0.00869
G1 X111.728 Y114.317 E0.00869
G1 X111.533 Y114.122 E0.00869
G1 X111.374 Y113.895 E0.00869
G1 X111.257 Y113.644 E0.00869
G1 X111.185 Y113.376 E0.00869
G1 X111.163 Y113.126 E0.00788
G1 X111.163 Y100.742 E0.38829
G1 X111.540 Y100.822 F7200.000
G1 F1050
G1 X115.785 Y95.903 E0.20373
G1 X115.927 Y95.764 E0.00623
G1 X116.099 Y95.646 E0.00651
G1 X116.288 Y95.560 E0.00651
G1 X116.488 Y95.507 E0.00651
G1 X116.686 Y95.490 E0.00623
G1 X133.314 Y95.490 E0.52134
G1 X133.512 Y95.507 E0.00623
G1 X133.712 Y95.560 E0.00651
G1 X133.901 Y95.646 E0.00651
G1 X134.073 Y95.764 E0.00651
G1 X134.215 Y95.903 E0.00623
G1 X138.460 Y100.822 E0.20373
G1 X138.460 Y113.109 E0.38526
G1 X138.442 Y113.310 E0.00633
G1 X138.388 Y113.514 E0.00662
G1 X138.299 Y113.705 E0.00662
G1 X138.178 Y113.878 E0.00662
G1 X138.028 Y114.028 E0.00662
G1 X137.871 Y114.138 E0.00602
G1 X137.666 Y114.237 E0.00716
G1 X137.460 Y114.292 E0.00667
G1 X137.259 Y114.310 E0.00633
G1 X112.741 Y114.310 E0.76876
G1 X112.540 Y114.292 E0.00633
G1 X112.336 Y114.238 E0.00662
G1 X112.145 Y114.149 E0.00662
G1 X111.972 Y114.028 E0.00662
G1 X111.822 Y113.878 E0.00662
G1 X111.701 Y113.705 E0.00662
G1 X111.612 Y113.514 E0.00662
G1 X111.558 Y113.310 E0.00662
G1 X111.540 Y113.109 E0.00633
G1 X111.540 Y100.882 E0.38338
G1 X111.323 Y100.486 F7200.000
G1 F5760
G1 X112.964 Y99.212 E-0.76000
G1 E-0.04000 F2100.00000
G1 X107.917 Y103.316 F7200.000
G1 E0.80000 F2100.00000
G1 F840
G1 X108.165 Y103.848 E0.01841
G1 X108.317 Y104.415 E0.01841
G1 X108.368 Y105.000 E0.01841
G1 X108.317 Y105.585 E0.01841
G1 X108.165 Y106.152 E0.01841
G1 X107.917 Y106.684 E0.01841
G1 X107.580 Y107.165 E0.01841
G1 X107.165 Y107.580 E0.01841
G1 X106.684 Y107.917 E0.01841
G1 X106.152 Y108.165 E0.01841
G1 X105.585 Y108.317 E0.01841
G1 X105.000 Y108.368 E0.01841
G1 X104.415 Y108.317 E0.01841
G1 X103.848 Y108.165 E0.01841
G1 X103.316 Y107.917 E0.01841
G1 X102.835 Y107.580 E0.01841
G1 X102.420 Y107.165 E0.01841
G1 X102.083 Y106.684 E0.01841
G1 X101.835 Y106.152 E0.01841
G1 X101.683 Y105.585 E0.01841
G1 X101.632 Y105.000 E0.01841
G1 X101.683 Y104.415 E0.01841
G1 X101.835 Y103.848 E0.01841
G1 X102.083 Y103.316 E0.01841
G1 X102.420 Y102.835 E0.01841
G1 X102.835 Y102.420 E0.01841
G1 X103.316 Y102.083 E0.01841
G1 X103.848 Y101.835 E0.01841
G1 X104.415 Y101.683 E0.01841
G1 X104.951 Y101.636 E0.01685
G1 X105.577 Y101.681 E0.01970
G1 X106.152 Y101.835 E0.01865
G1 X106.684 Y102.083 E0.01841
G1 X107.165 Y102.420 E0.01841
G1 X107.580 Y102.835 E0.01841
G1 X107.882 Y103.267 E0.01653
G1 X107.573 Y103.483 F7200.000
G1 F840
G1 X107.809 Y103.978 E0.01717
G1 X107.944 Y104.481 E0.01634
G1 X107.989 Y105.000 E0.01634
G1 X107.944 Y105.519 E0.01634
G1 X107.809 Y106.022 E0.01634
G1 X107.589 Y106.495 E0.01634
G1 X107.290 Y106.921 E0.01634
G1 X106.921 Y107.290 E0.01634
G1 X106.495 Y107.589 E0.01634
G1 X106.022 Y107.809 E0.01634
G1 X105.519 Y107.944 E0.01634
G1 X105.000 Y107.989 E0.01634
G1 X104.481 Y107.944 E0.01634
G1 X103.978 Y107.809 E0.01634
G1 X103.505 Y107.589 E0.01634
G1 X103.079 Y107.290 E0.01634
G1 X102.710 Y106.921 E0.01634
G1 X102.411 Y106.495 E0.01634
G1 X102.191 Y106.022 E0.01634
G1 X102.056 Y105.519 E0.01634
G1 X102.011 Y105.000 E0.01634
G1 X102.056 Y104.481 E0.01634
G1 X102.191 Y103.978 E0.01634
G1 X102.411 Y103.505 E0.01634
G1 X102.710 Y103.079 E0.01634
G1 X103.079 Y102.710 E0.01634
G1 X103.505 Y102.411 E0.01634
G1 X103.978 Y102.191 E0.01634
G1 X104.481 Y102.056 E0.01634
G1 X104.954 Y102.015 E0.01488
G1 X105.515 Y102.055 E0.01763
G1 X106.022 Y102.191 E0.01648
G1 X106.495 Y102.411 E0.01634
G1 X106.921 Y102.710 E0.01634
G1 X107.290 Y103.079 E0.01634
G1 X107.539 Y103.434 E0.01361
G1 X107.230 Y103.650 F7200.000
G1 F840
G1 X107.453 Y104.107 E0.01594
G1 X107.571 Y104.547 E0.01427
G1 X107.611 Y105.000 E0.01427
G1 X107.571 Y105.453 E0.01427
G1 X107.453 Y105.893 E0.01427
G1 X107.261 Y106.305 E0.01427
G1 X107.000 Y106.678 E0.01427
G1 X106.678 Y107.000 E0.01427
G1 X106.305 Y107.261 E0.01427
G1 X105.893 Y107.453 E0.01427
G1 X105.453 Y107.571 E0.01427
G1 X105.000 Y107.611 E0.01427
G1 X104.547 Y107.571 E0.01427
G1 X104.107 Y107.453 E0.01427
G1 X103.695 Y107.261 E0.01427
G1 X103.322 Y107.000 E0.01427
G1 X103.000 Y106.678 E0.01427
G1 X102.739 Y106.305 E0.01427
G1 X102.547 Y105.893 E0.01427
G1 X102.429 Y105.453 E0.01427
G1 X102.389 Y105.000 E0.01427
G1 X102.429 Y104.547 E0.01427
G1 X102.547 Y104.107 E0.01427
G1 X102.739 Y103.695 E0.01427
G1 X103.000 Y103.322 E0.01427
G1 X103.322 Y103.000 E0.01427
G1 X103.695 Y102.739 E0.01427
G1 X104.107 Y102.547 E0.01427
G1 X104.547 Y102.429 E0.01427
G1 X104.957 Y102.393 E0.01290
G1 X105.452 Y102.428 E0.01556
G1 X105.893 Y102.547 E0.01432
G1 X106.305 Y102.739 E0.01427
G1 X106.678 Y103.000 E0.01427
G1 X107.000 Y103.322 E0.01427
G1 X107.196 Y103.601 E0.01069
G1 X107.630 Y103.645 F7200.000
G1 F5760
G1 X107.453 Y104.107 E-0.19663
G1 F5760
G1 X107.571 Y104.547 E-0.15762
G1 F5760
G1 X107.611 Y105.000 E-0.15762
G1 F5760
G1 X107.571 Y105.453 E-0.15762
G1 F5760
G1 X107.504 Y105.706 E-0.09050
G1 E-0.04000 F2100.00000
G1 X141.632 Y105.000 F7200.000
G1 E0.80000 F2100.00000
G1 F840
G1 X141.683 Y104.415 E0.01841
G1 X141.835 Y103.848 E0.01841
G1 X142.083 Y103.316 E0.01841
G1 X142.420 Y102.835 E0.01841
G1 X142.835 Y102.420 E0.01841
G1 X143.316 Y102.083 E0.01841
G1 X143.848 Y101.835 E0.01841
G1 X144.415 Y101.683 E0.01841
G1 X144.951 Y101.636 E0.01685
G1 X145.577 Y101.681 E0.01970
G1 X146.152 Y101.835 E0.01865
G1 X146.684 Y102.083 E0.01841
G1 X147.165 Y102.420 E0.01841
G1 X147.580 Y102.835 E0.01841
G1 X147.917 Y103.316 E0.01841
G1 X148.165 Y103.848 E0.01841
G1 X148.317 Y104.415 E0.01841
G1 X148.368 Y105.000 E0.01841
G1 X148.317 Y105.585 E0.01841
G1 X148.165 Y106.152 E0.01841
G1 X147.917 Y106.684 E0.01841
G1 X147.580 Y107.165 E0.01841
G1 X147.165 Y107.580 E0.01841
G1 X146.684 Y107.917 E0.01841
G1 X146.152 Y108.165 E0.01841
G1 X145.585 Y108.317 E0.01841
G1 X145.000 Y108.368 E0.01841
G1 X144.415 Y108.317 E0.01841
G1 X143.896 Y108.178 E0.01685
G1 X143.322 Y107.921 E0.01970
G1 X142.835 Y107.580 E0.01865
G1 X142.420 Y107.165 E0.01841
G1 X142.083 Y106.684 E0.01841
G1 X141.835 Y106.152 E0.01841
G1 X141.683 Y105.585 E0.01841
G1 X141.637 Y105.060 E0.01653
G1 X142.013 Y105.027 F7200.000
G1 F840
G1 X142.056 Y104.481 E0.01717
G1 X142.191 Y103.978 E0.01634
G1 X142.411 Y103.505 E0.01634
G1 X142.710 Y103.079 E0.01634
G1 X143.079 Y102.710 E0.01634
G1 X143.505 Y102.411 E0.01634
G1 X143.978 Y102.191 E0.01634
G1 X144.481 Y102.056 E0.01634
G1 X144.954 Y102.015 E0.01488
G1 X145.515 Y102.055 E0.01763
G1 X146.022 Y102.191 E0.01648
G1 X146.495 Y102.411 E0.01634
G1 X146.921 Y102.710 E0.01634
G1 X147.290 Y103.079 E0.01634
G1 X147.589 Y103.505 E0.01634
G1 X147.809 Y103.978 E0.01634
G1 X147.944 Y104.481 E0.01634
G1 X147.989 Y105.000 E0.01634
G1 X147.944 Y105.519 E0.01634
G1 X147.809 Y106.022 E0.01634
G1 X147.589 Y106.495 E0.01634
G1 X147.290 Y106.921 E0.01634
G1 X146.921 Y107.290 E0.01634
G1 X146.495 Y107.589 E0.01634
G1 X146.022 Y107.809 E0.01634
G1 X145.519 Y107.944 E0.01634
G1 X145.000 Y107.989 E0.01634
G1 X144.481 Y107.944 E0.01634
G1 X144.023 Y107.821 E0.01488
G1 X143.509 Y107.592 E0.01763
G1 X143.079 Y107.290 E0.01648
G1 X142.710 Y106.921 E0.01634
G1 X142.411 Y106.495 E0.01634
G1 X142.191 Y106.022 E0.01634
G1 X142.056 Y105.519 E0.01634
G1 X142.018 Y105.087 E0.01361
G1 X142.394 Y105.054 F7200.000
G1 F840
G1 X142.429 Y104.547 E0.01594
G1 X142.547 Y104.107 E0.01427
G1 X142.739 Y103.695 E0.01427
G1 X143.000 Y103.322 E0.01427
G1 X143.322 Y103.000 E0.01427
G1 X143.695 Y102.739 E0.01427
G1 X144.107 Y102.547 E0.01427
G1 X144.547 Y102.429 E0.01427
G1 X144.957 Y102.393 E0.01290
G1 X145.452 Y102.428 E0.01556
G1 X145.893 Y102.547 E0.01432
G1 X146.305 Y102.739 E0.01427
G1 X146.678 Y103.000 E0.01427
G1 X147.000 Y103.322 E0.01427
G1 X147.261 Y103.695 E0.01427
G1 X147.453 Y104.107 E0.01427
G1 X147.571 Y104.547 E0.01427
G1 X147.611 Y105.000 E0.01427
G1 X147.571 Y105.453 E0.01427
G1 X147.453 Y105.893 E0.01427
G1 X147.261 Y106.305 E0.01427
G1 X147.000 Y106.678 E0.01427
G1 X146.678 Y107.000 E0.01427
G1 X146.305 Y107.261 E0.01427
G1 X145.893 Y107.453 E0.01427
G1 X145.453 Y107.571 E0.01427
G1 X145.000 Y107.611 E0.01427
G1 X144.547 Y107.571 E0.01427
G1 X144.149 Y107.465 E0.01291
G1 X143.696 Y107.262 E0.01556
G1 X143.322 Y107.000 E0.01432
G1 X143.000 Y106.678 E0.01427
G1 X142.739 Y106.305 E0.01427
G1 X142.547 Y105.893 E0.01427
G1 X142.429 Y105.453 E0.01427
G1 X142.399 Y105.114 E0.01069
G1 X142.045 Y104.859 F7200.000
G1 F5760
G1 X142.429 Y104.547 E-0.19663
G1 F5760
G1 X142.547 Y104.107 E-0.15762
G1 F5760
G1 X142.739 Y103.695 E-0.15762
G1 F5760
G1 X143.000 Y103.322 E-0.15762
G1 F5760
G1 X143.185 Y103.137 E-0.09050
G1 E-0.04000 F2100.00000
G1 X147.693 Y101.999 F7200.000
G1 E0.80000 F2100.00000
G1 F1680
G1 X148.168 Y102.505 E0.02179
G1 X148.549 Y103.086 E0.02179
G1 X148.825 Y103.724 E0.02179
G1 X148.987 Y104.400 E0.02179
G1 X149.031 Y105.094 E0.02179
G1 X148.955 Y105.784 E0.02179
G1 X148.762 Y106.452 E0.02179
G1 X148.457 Y107.076 E0.02179
G1 X148.024 Y107.673 E0.02310
G1 X140.440 Y116.435 E0.36337
G1 X140.195 Y116.645 E0.01010
G1 X139.923 Y116.811 E0.01000
G1 X139.628 Y116.933 E0.01000
G1 X139.357 Y116.998 E0.00874
G1 X138.955 Y117.036 E0.01265
G1 X111.038 Y117.036 E0.87533
G1 X110.682 Y117.008 E0.01119
G1 X110.372 Y116.933 E0.01000
G1 X110.077 Y116.811 E0.01000
G1 X109.805 Y116.645 E0.01000
G1 X109.560 Y116.435 E0.01010
G1 X101.976 Y107.673 E0.36337
G1 X101.543 Y107.076 E0.02310
G1 X101.238 Y106.452 E0.02179
G1 X101.045 Y105.784 E0.02179
G1 X100.969 Y105.094 E0.02179
G1 X101.013 Y104.400 E0.02179
G1 X101.175 Y103.724 E0.02179
G1 X101.451 Y103.086 E0.02179
G1 X101.832 Y102.505 E0.02179
G1 X102.307 Y101.999 E0.02179
G1 X102.911 Y101.544 E0.02369
G1 X114.535 Y93.630 E0.44092
G1 X114.871 Y93.347 E0.01377
G1 X115.141 Y93.184 E0.00989
G1 X115.433 Y93.064 E0.00989
G1 X115.740 Y92.992 E0.00989
G1 X116.092 Y92.964 E0.01107
G1 X133.908 Y92.964 E0.55860
G1 X134.220 Y92.988 E0.00982
G1 X134.573 Y93.067 E0.01133
G1 X134.859 Y93.184 E0.00968
G1 X135.129 Y93.347 E0.00989
G1 X135.465 Y93.630 E0.01377
G1 X147.089 Y101.544 E0.44092
G1 X147.645 Y101.962 E0.02181
G1 X147.871 Y101.661 F7200.000
G1 F1680
G1 X147.945 Y101.717 E0.00290
G1 X148.465 Y102.271 E0.02383
G1 X148.882 Y102.907 E0.02383
G1 X149.184 Y103.605 E0.02383
G1 X149.362 Y104.344 E0.02383
G1 X149.410 Y105.102 E0.02383
G1 X149.326 Y105.858 E0.02383
G1 X149.115 Y106.588 E0.02383
G1 X148.781 Y107.271 E0.02383
G1 X148.320 Y107.907 E0.02463
G1 X140.706 Y116.704 E0.36477
G1 X140.417 Y116.951 E0.01192
G1 X140.095 Y117.148 E0.01186
G1 X139.745 Y117.293 E0.01186
G1 X139.419 Y117.371 E0.01052
G1 X138.973 Y117.413 E0.01405
G1 X111.023 Y117.413 E0.87634
G1 X110.623 Y117.381 E0.01259
G1 X110.255 Y117.293 E0.01186
G1 X109.905 Y117.148 E0.01186
G1 X109.583 Y116.951 E0.01186
G1 X109.294 Y116.704 E0.01192
G1 X101.680 Y107.907 E0.36477
G1 X101.219 Y107.271 E0.02463
G1 X100.885 Y106.588 E0.02383
G1 X100.674 Y105.858 E0.02383
G1 X100.590 Y105.102 E0.02383
G1 X100.638 Y104.344 E0.02383
G1 X100.816 Y103.605 E0.02383
G1 X101.118 Y102.907 E0.02383
G1 X101.535 Y102.271 E0.02383
G1 X102.055 Y101.717 E0.02383
G1 X102.692 Y101.238 E0.02499
G1 X114.307 Y93.329 E0.44060
G1 X114.651 Y93.039 E0.01409
G1 X114.971 Y92.846 E0.01173
G1 X115.318 Y92.704 E0.01173
G1 X115.682 Y92.618 E0.01173
G1 X116.077 Y92.587 E0.01245
G1 X133.923 Y92.587 E0.55952
G1 X134.276 Y92.615 E0.01112
G1 X134.686 Y92.706 E0.01317
G1 X135.029 Y92.846 E0.01160
G1 X135.349 Y93.039 E0.01173
G1 X135.693 Y93.329 E0.01409
G1 X147.308 Y101.238 E0.44061
G1 X147.823 Y101.625 E0.02021
G1 X148.198 Y101.435 F7200.000
G1 F1050
G1 X148.763 Y102.037 E0.02588
G1 X149.216 Y102.727 E0.02588
G1 X149.543 Y103.485 E0.02588
G1 X149.736 Y104.287 E0.02588
G1 X149.788 Y105.111 E0.02588
G1 X149.698 Y105.932 E0.02588
G1 X149.468 Y106.724 E0.02588
G1 X149.106 Y107.466 E0.02588
